src/icons/recent.svg

<?xml version="1.0" encoding="UTF-8"?>
<svg width="512px" height="512px" viewBox="0 0 512 512" version="1.1" xmlns="http://www.w3.org/2000/svg" xmlns:xlink="http://www.w3.org/1999/xlink">
    <!-- Generator: Sketch 62 (91390) - https://sketch.com -->
    <title>recent</title>
    <desc>Created with Sketch.</desc>
    <g id="recent" stroke="none" stroke-width="1" fill="none" fill-rule="evenodd">
        <path d="M136.5,249.544425 L171,249.544425 C153.8,272.444425 137,294.944425 119.9,317.644425 C103,294.944425 86.1,272.644425 68.9,249.644425 L102.4,249.644425 C102.9,242.944425 103.2,236.744425 103.8,230.744425 C108.1,191.144425 124.6,157.344425 152.7,129.144425 C176.5,105.344425 204.8,89.1444245 238,83.0444245 C307.2,70.4444245 364.6,91.5444245 408.4,146.844425 C433.6,178.744425 444.3,215.944425 442.9,256.444425 C440.1,335.344425 382,401.744425 306.6,416.044425 C247.9,427.044425 196.6,411.644425 153.2,370.244425 C148.1,365.344425 146.5,359.444425 148.5,352.844425 C150.5,345.944425 155.4,341.944425 162.4,340.944425 C168.2,340.044425 173,342.144425 177.1,346.244425 C191.4,360.144425 207.7,370.644425 226.5,377.444425 C305.3,406.244425 392.1,356.244425 406.6,274.144425 C419.3,201.744425 373.5,132.844425 302.1,116.944425 C227.3,100.144425 152.8,149.344425 139,224.944425 C137.8,232.744425 137.5,240.844425 136.5,249.544425 Z" id="Path" fill="#000000" fill-rule="nonzero"></path>
        <path d="M272.9,250.15 L272.9,173.25 C272.9,163.55 265.8,156.05 256.4,155.85 C246.7,155.65 238.7,162.85 238.7,172.55 C238.6,206.65 238.6,240.85 238.7,274.95 C238.7,284.35 245.9,291.85 255.3,291.85 C278.2,292.05 301.2,292.05 324.3,291.85 C333.8,291.75 341.2,283.65 341,274.45 C340.8,264.75 333.4,257.75 323.5,257.75 L273,257.75 L273,250.15 L272.9,250.15 L272.9,250.15 Z" id="Path" fill="#000000" fill-rule="nonzero"></path>
    </g>
</svg>

<svg xmlns="http://www.w3.org/2000/svg" width="512" height="512" viewBox="0 0 512 512">
    <path d="M136.5 249.544H171c-17.2 22.9-34 45.4-51.1 68.1-16.9-22.7-33.8-45-51-68h33.5c.5-6.7.8-12.9 1.4-18.9 4.3-39.6 20.8-73.4 48.9-101.6 23.8-23.8 52.1-40 85.3-46.1 69.2-12.6 126.6 8.5 170.4 63.8 25.2 31.9 35.9 69.1 34.5 109.6-2.8 78.9-60.9 145.3-136.3 159.6-58.7 11-110-4.4-153.4-45.8-5.1-4.9-6.7-10.8-4.7-17.4 2-6.9 6.9-10.9 13.9-11.9 5.8-.9 10.6 1.2 14.7 5.3 14.3 13.9 30.6 24.4 49.4 31.2 78.8 28.8 165.6-21.2 180.1-103.3 12.7-72.4-33.1-141.3-104.5-157.2-74.8-16.8-149.3 32.4-163.1 108-1.2 7.8-1.5 15.9-2.5 24.6z"/>
    <path d="M272.9 250.15v-76.9c0-9.7-7.1-17.2-16.5-17.4-9.7-.2-17.7 7-17.7 16.7-.1 34.1-.1 68.3 0 102.4 0 9.4 7.2 16.9 16.6 16.9 22.9.2 45.9.2 69 0 9.5-.1 16.9-8.2 16.7-17.4-.2-9.7-7.6-16.7-17.5-16.7H273v-7.6h-.1z"/>
</svg>
